icon-svg/zigbee-dongle.svg

<svg xmlns="http://www.w3.org/2000/svg" fill="#44739e" viewBox="0 0 24 24"><path d="M13.648 12.33a.16.16 0 0 0 0-.052c-.007 0-.05-.889-.041-1.87S13.6 8.586 13.6 8.584a.763.763 0 0 0-1.015-.04 12.53 12.53 0 0 0-1.754 1.807c-.1.123-.193.248-.286.377a2.6 2.6 0 0 0 .032.351q.435-.578.923-1.113c.333-.365.685-.713 1.052-1.043.013 0 .056.838.046 1.808s-.007 1.85 0 1.945a.751.751 0 0 0 .974.064 12.35 12.35 0 0 0 2.158-2.3 2.5 2.5 0 0 0-.049-.324 15.3 15.3 0 0 1-2.033 2.214m-9.8199 5.6925.4024-.4023.5628.5628-.4023.4024zm1.3935 1.394.4023-.4023.5629.5628-.4024.4024zM16.387 3.023 6.9 12.51l-1.607 1.608.349.348L2.506 17.6l3.7 3.7 3.135-3.135.349.348L20.784 7.42c.733-.733.93-1.723.442-2.211L18.6 2.581c-.49-.488-1.48-.29-2.213.442m-8.5 15.951-1.77 1.77L4.672 19.3l.884-.885L5.141 18l.389-.389.415.416.5-.5zM6.28 17.366l-.335.335-.416-.416-.71.715.416.415-.724.724-1.448-1.452 1.77-1.769Zm9.4-7.258s.03.14.036.162.014.161.014.161v.005a2.6 2.6 0 0 1-5.155.643.9.9 0 0 1-.026-.169 1.04 1.04 0 0 1-.006-.181 2.6 2.6 0 0 1 5.138-.616z"/></svg>

<?xml version="1.0" encoding="UTF-8"?>
<svg width="24px" fill="#44739e" height="24px" viewBox="0 0 24 24" version="1.1" xmlns="http://www.w3.org/2000/svg" xmlns:xlink="http://www.w3.org/1999/xlink">
            <path d="m 13.648,12.33 a 0.163,0.163 0 0 0 0,-0.052 c -0.007,0 -0.05,-0.889 -0.041,-1.87 C 13.616,9.427 13.6,8.586 13.6,8.584 a 0.763,0.763 0 0 0 -1.015,-0.04 12.527,12.527 0 0 0 -1.754,1.807 c -0.1,0.123 -0.193,0.248 -0.286,0.377 a 2.587,2.587 0 0 0 0.032,0.351 Q 11.012,10.501 11.5,9.966 c 0.333,-0.365 0.685,-0.713 1.052,-1.043 0.013,0 0.056,0.838 0.046,1.808 -0.01,0.97 -0.007,1.85 0,1.945 a 0.751,0.751 0 0 0 0.974,0.064 12.353,12.353 0 0 0 2.158,-2.3 2.534,2.534 0 0 0 -0.049,-0.324 15.317,15.317 0 0 1 -2.033,2.214 z m -9.8198625,5.692514 0.4023437,-0.402344 0.562857,0.562857 -0.4023437,0.402344 z m 1.3934144,1.394 0.4023438,-0.402343 0.562857,0.562857 -0.4023438,0.402343 z M 16.387,3.023 6.9,12.51 5.293,14.118 5.642,14.466 2.506,17.6 6.206,21.3 9.341,18.165 9.69,18.513 20.784,7.42 c 0.733,-0.733 0.93,-1.723 0.442,-2.211 L 18.6,2.581 C 18.11,2.093 17.12,2.291 16.387,3.023 Z m -8.5,15.951 -1.77,1.77 L 4.672,19.3 5.556,18.415 5.141,18 5.53,17.611 l 0.415,0.416 0.5,-0.5 z M 6.28,17.366 5.945,17.701 5.529,17.285 4.819,18 5.235,18.415 4.511,19.139 3.063,17.687 4.833,15.918 Z m 9.4,-7.258 c 0,0 0.03,0.14 0.036,0.162 0.006,0.022 0.014,0.161 0.014,0.161 v 0.005 a 2.6,2.6 0 0 1 -5.155,0.643 v 0 A 0.887,0.887 0 0 1 10.549,10.91 1.044,1.044 0 0 1 10.543,10.729 v 0 a 2.6,2.6 0 0 1 5.138,-0.616 z"/>

</svg>
